newicons/tp_did.svg

<svg xmlns="http://www.w3.org/2000/svg" xml:space="preserve" id="svg1" version="1.1" viewBox="0 0 48 48"><defs id="defs1"><style id="style1"></style></defs><path id="rect7333" d="M9.5 5.5h29c2.216 0 4 1.784 4 4v29c0 2.216-1.784 4-4 4h-29c-2.216 0-4-1.784-4-4v-29c0-2.216 1.784-4 4-4zm17.378912 14.476272v8.125033m-1.953609.09392h3.907217m-3.907217-8.312874h3.907217m-6.437406-1.73165-2.914872 11.698603m-8.021045-9.96695h3.714129c1.708284 0 2.68754 1.477272 2.195643 3.312269l-.452583 1.688337c-.491897 1.834997-2.263162 3.312269-3.971445 3.312269H9.2308082l1.4811638-5.525394m21.259532-2.787481h3.714129c1.708284 0 3.083544 1.477272 3.083544 3.312269v1.688337c0 1.834997-1.37526 3.312269-3.083544 3.312269h-3.714129z" class="cls-1" style="fill:none;stroke:#fff;stroke-linecap:round;stroke-linejoin:round;stroke-opacity:1"/></svg>

<?xml version="1.0" encoding="UTF-8"?><svg id="b" xmlns="http://www.w3.org/2000/svg" viewBox="0 0 48 48"><defs><style>.d{fill:none;stroke:#fff;stroke-linecap:round;stroke-linejoin:round;}</style></defs><path id="c" class="d" d="M9.5,5.5h29c2.216,0,4,1.784,4,4v29c0,2.216-1.784,4-4,4H9.5c-2.216,0-4-1.784-4-4V9.5c0-2.216,1.784-4,4-4ZM26.8789,19.9763v8.125M24.9253,28.1952h3.9072M24.9253,19.8824h3.9072M22.3951,18.1507l-2.9149,11.6986M11.4592,19.8824h3.7141c1.7083,0,2.6875,1.4773,2.1956,3.3123l-.4526,1.6883c-.4919,1.835-2.2632,3.3123-3.9714,3.3123h-3.7141l1.4812-5.5254M31.9715,19.8824h3.7141c1.7083,0,3.0835,1.4773,3.0835,3.3123v1.6883c0,1.835-1.3753,3.3123-3.0835,3.3123h-3.7141v-8.3129Z"/></svg>
